X:088
U: ~ = !turn!
%%topmargin 3cm
T:Humours of Carrigaholt
B:Traditional Irish Fiddle Tunes. Randy Miller and Jack Perron.
Z:Transcribed by Ralph Palmer
R:Reel
M:C|
L:1/8
K:D
dcAF GBAG | {FG}F2 DE FGAB | (3.=c.c.B AF G2 FG | Ad (3{/e}(dcd) dgfe |
dcAF GBAG | {FG}F2 DE FGAB | =cBAF G2 FG | Ad (3{/e}(dcd) d2 ::
e| fdde fdgf | edcd efge | gd (3.d.d.d fdgf | edcd e2 g2 |
gd (3.d.d.d fdgf | edcd dfge | agfa gfec | dfec d2 :|]
